Hatter-kde/actions/22/view-sort-descending-name.svg

<svg xmlns="http://www.w3.org/2000/svg" viewBox="0 0 22 22">
  <defs id="defs3051">
    <style type="text/css" id="current-color-scheme">
      .ColorScheme-Text {
        color:#363636;
      }
      </style>
  </defs>
 <path 
    style="fill:currentColor;fill-opacity:1;stroke:none" 
    d="M 5.1113281 3 L 5.1113281 3.8144531 L 7.1835938 3.8144531 L 5 7.0683594 L 5 7.8007812 L 8.828125 7.8007812 L 8.828125 6.9492188 L 6.5820312 6.9492188 L 8.7558594 3.65625 L 8.7558594 3 L 5.1113281 3 z M 13 8.9921875 L 13 17.285156 L 10.707031 14.992188 L 10 15.699219 L 13.292969 18.992188 L 13.5 19.199219 L 13.707031 18.992188 L 17 15.699219 L 16.292969 14.992188 L 14 17.285156 L 14 8.9921875 L 13 8.9921875 z M 7.0957031 9 C 6.3124631 9.0182 5.7105975 9.1551088 5.2734375 9.3554688 L 5.5195312 10.255859 C 5.7290012 10.182959 6.5218511 9.9296875 6.9863281 9.9296875 L 7.0488281 9.9296875 C 7.6954581 9.9569875 7.7421875 10.192497 7.7421875 10.748047 L 7.7421875 10.966797 L 7.4042969 11.021484 C 5.8378069 11.249174 5 11.440388 5 12.642578 C 5 13.480468 5.6107106 14 6.4941406 14 C 7.1043406 14 7.5042305 13.744517 7.9140625 13.398438 L 8.0410156 13.908203 L 9.0078125 13.908203 L 9.0078125 10.539062 C 9.0078125 9.5099235 8.296026 9 7.203125 9 L 7.0957031 9 z M 7.7421875 11.677734 L 7.7421875 12.796875 C 7.4052175 13.024565 7.1500506 13.189453 6.7128906 13.189453 C 6.3212706 13.189453 6.1289062 12.943736 6.1289062 12.597656 C 6.1289062 11.941916 6.7030169 11.832602 7.4042969 11.732422 L 7.7421875 11.677734 z "
	class="ColorScheme-Text"
    />  
</svg>

<?xml version="1.0" encoding="UTF-8"?>
<svg viewBox="0 0 22 22" xmlns="http://www.w3.org/2000/svg">
 <defs id="defs3051">
  <style id="current-color-scheme" type="text/css">.ColorScheme-Text {
        color:#363636;
      }</style>
 </defs>
 <path class="ColorScheme-Text" d="m5.1113 3v0.81445h2.0723l-2.1836 3.2539v0.73242h3.8281v-0.85156h-2.2461l2.1738-3.293v-0.65625h-3.6445zm7.8887 5.9922v8.293l-2.293-2.293-0.70703 0.70703 3.5 3.5 3.5-3.5-0.70703-0.70703-2.293 2.293v-8.293h-1zm-5.9043 0.0078125c-0.78324 0.0182-1.3851 0.15511-1.8223 0.35547l0.24609 0.90039c0.20947-0.0729 1.0023-0.32617 1.4668-0.32617h0.0625c0.64663 0.0273 0.69336 0.26281 0.69336 0.81836v0.21875l-0.33789 0.054687c-1.5665 0.22769-2.4043 0.4189-2.4043 1.6211 0 0.83789 0.61071 1.3574 1.4941 1.3574 0.6102 0 1.0101-0.25548 1.4199-0.60156l0.12695 0.50976h0.9668v-3.3691c0-1.0291-0.71179-1.5391-1.8047-1.5391h-0.10742zm0.64648 2.6777v1.1191c-0.33697 0.22769-0.59214 0.39258-1.0293 0.39258-0.39162 0-0.58398-0.24572-0.58398-0.5918 0-0.65574 0.57411-0.76505 1.2754-0.86523l0.33789-0.054688z" fill="currentColor"/>
</svg>
